!!!!SEGMENT: pl-wn--sd-xvi-o-277_anonim--kancjonal-zamoyskich-psalm-dawidow-lxx-in-te-domine-speravi-w-tobie-panie-nadzieje-mam.krn
!!!cenid: 15xx:832
!!!COM: Anonim
!!!COM-rismID: pe30004985
!!!CDT:
!!!CNT:
!!!GTL: Kancjonał Zamoyskich
!!!OTL: Psalm Dawidów LXX In te Domine speravi/W Tobie Panie nadzieję mam
!!!PDT: 1558
!!!AGN:
!!!SMS-siglum: PL-Wn
!!!SMS-shelfmark: SD XVI.O.277
!!!SMS-shelfwork: G
!!!SMS-variant:
!!!SMS-altvar:
!!!NIFC-rismSourceID: 990072219
!!!NIFC-rismChildID: 990072219
!!!NIFC-islandoraID:
!!!URL-pdf-islandora:
!!!URL-scan: https://polona.pl/item/psalm-dawidow-lxx-in-te-domine-speraui-etc,MTE3MTYxNA/3 @EN{Scan on Polona} @PL{Skany w portalu Polona}
!!!ONB-nifc: UWAGA: proszę zapisywać tylko teksty występujące bezpośrednio pod nutami
!!!AIN: 1 alto 1 bass 1 soprn 1 tenor
!!!key: g:dor
**kern	**text	**mod-text	**kern	**text	**mod-text	**kern	**text	**mod-text	**kern	**text	**mod-text
*part4	*part4	*part1	*part3	*part3	*part1	*part2	*part2	*part1	*part1	*part1	*part1
*staff4	*staff4	*staff1	*staff3	*staff3	*staff1	*staff2	*staff2	*staff1	*staff1	*staff1	*staff1
*I"BASS.	*	*	*I"TENOR.	*	*	*I"ALT.	*	*	*I"CANTVS.	*	*
*mI"Basso	*	*	*mI"Tenore	*	*	*mI"Alto	*	*	*mI"Soprano	*	*
*I'B	*	*	*I'T	*	*	*I'A	*	*	*I'S	*	*
*Ibass	*	*	*Itenor	*	*	*Ialto	*	*	*Isoprn	*	*
*ICvox	*	*	*ICvox	*	*	*ICvox	*	*	*ICvox	*	*
*clefF3	*	*	*clefC4	*	*	*clefC3	*	*	*clefC1	*	*
*mclefF4	*	*	*mclefGv2	*	*	*mclefG2	*	*	*mclefG2	*	*
*k[b-]	*	*	*k[b-]	*	*	*k[b-]	*	*	*k[b-]	*	*
*g:dor	*	*	*g:dor	*	*	*g:dor	*	*	*g:dor	*	*
*M2/1	*	*	*M2/1	*	*	*M2/1	*	*	*M2/1	*	*
*met(C|)	*	*	*met(C|)	*	*	*met(C|)	*	*	*met(C|)	*	*
*mmet(c|)	*	*	*mmet(c|)	*	*	*mmet(c|)	*	*	*mmet(c|)	*	*
=1-	=1-	=1-	=1-	=1-	=1-	=1-	=1-	=1-	=1-	=1-	=1-
!!LO:TX:a:t=P:problem:w źródle wszystkie caudy po środku
*xywh-#5:2729,2177,2063,560	*	*	*xywh-#5:2771,328,2219,844	*	*	*xywh-#5:604,2127,2081,560	*	*	*xywh-#5:667,355,2046,780	*	*
2G\	.	W_To-	2G/	W tho-	W_To-	2d\	.	W_To-	2g/	W tho-	W_To-
2G\	.	-bie	2G/	-bie	-bie	2d\	.	-bie	2g/	-bie	-bie
1.G	.	Pa-	1G	Pa-	Pa-	1d	.	Pa-	2.g/	Pa-	Pa-
.	.	.	.	.	.	.	.	.	4a\	-nie	.
=2-	=2-	=2-	=2-	=2-	=2-	=2-	=2-	=2-	=2-	=2-	=2-
.	.	.	2d\	-nie	.	2g\	.	.	2b-\	na-	.
2D/	.	-nie	2d\	na-	-nie	2f\	.	-nie	2a\	-dzie-	-nie
2A\	.	na-	2c\	-dzie-	na-	2e\	.	na-	2cc\	-ię	na-
!!LO:MO:ori
!	!	!	!	!	!	!	!	!	!LO:TX:t=P:problem:w źródle nuta zbędna, wykreślona ołówkiem	!	!
2ryy	.	.	2ryy	.	.	2ryy	.	.	2a/	.	.
!!LO:MO:end
2F/	.	-dzie-	2c\	-yę	-dzie-	2f\	.	-dzie-	1a\	mam/	-dzie-
=3-	=3-	=3-	=3-	=3-	=3-	=3-	=3-	=3-	=3-	=3-	=3-
1G	.	-ję	1B-	mam/	-ję	1d	.	-ję	.	.	.
.	.	.	.	.	.	.	.	.	2g/	wſzy-	-ję
!	!	!	!	!	!	!	!	!	!LO:SIC:v:t=custos a	!	!
1D	.	mam	1A	.	mam	1d	.	mam	1a	-tko	mam
!	!	!	!	!	!	!	!	!	!LO:LB:g=original	!	!
=4-	=4-	=4-	=4-	=4-	=4-	=4-	=4-	=4-	=4-	=4-	=4-
!LO:SIC:v:t=custos B-	!	!	!	!	!	!	!	!	!	!	!
*	*	*	*	*	*	*	*	*	*xywh-#5:662,1100,2057,583	*	*
2D/	.	wszy-	2F/	Wſzy-	wszy-	2d\	.	wszy-	2a\	du-	wszy-
!LO:LB:g=original	!	!	!	!	!	!	!	!	!	!	!
!	!	!	!LO:SIC:v:t=custos A	!	!	!LO:SIC:v:t=custos e	!	!	!	!	!
*xywh-#5:2723,2709,2069,398	*	*	*	*	*	*	*	*	*	*	*
2B-\	.	-tko	2G/	-tko	-tko	2g\	.	-tko	2b-\	-fa-	-tko
!	!	!	!LO:LB:g=original	!	!	!LO:LB:g=original	!	!	!	!	!
*	*	*	*xywh-#5:2754,1108,2040,595	*	*	*xywh-#5:592,2625,2138,462	*	*	*	*	*
2A\	.	du-	2A/	du-	du-	2e\	.	du-	2cc\	-nie	du-
2G\	.	-fa-	2B-\	-fa-	-fa-	2f\	.	-fa-	2dd\	po-	-fa-
=5-	=5-	=5-	=5-	=5-	=5-	=5-	=5-	=5-	=5-	=5-	=5-
2A\	.	-nie	2c\	-nie	-nie	4e\	.	-nie	2cc\	-kla-	-nie
.	.	.	.	.	.	4a\	.	.	.	.	.
2B-\	.	po-	2d\	po-	po-	2f\	.	po-	1b-	-dam/	po-
1F	.	-kła-	1c	-kła-	-kła-	1f	.	-kła-	.	.	.
.	.	.	.	.	.	.	.	.	2a\	Tak	-kła-
=6-	=6-	=6-	=6-	=6-	=6-	=6-	=6-	=6-	=6-	=6-	=6-
1BB-	.	-dam	1B-	-dam.	-dam	1d	.	-dam	1b-	nie	-dam
2BB-/	.	tak	2d\	Tak	tak	2f\	.	tak	2b-\	bę-	tak
2BB-/	.	nie	2d\	nie	nie	2f\	.	nie	2b-\	-dę	nie
=7-	=7-	=7-	=7-	=7-	=7-	=7-	=7-	=7-	=7-	=7-	=7-
1F	.	bę-	1c	bę-	bę-	2.f\	.	bę-	1a	po-	bę-
.	.	.	.	.	.	4e\	.	.	.	.	.
1G	.	-dę	1B-	-dę	-dę	4d\	.	-dę	2g\	-hań-	-dę
.	.	.	.	.	.	4c/	.	.	.	.	.
!	!	!	!	!	!	!	!	!	!LO:SIC:v:t=custos a	!	!
.	.	.	.	.	.	4B-/	.	.	2b-\	-biony/	po-
!	!	!	!	!	!	!LO:SIC:v:t=custos A	!	!	!	!	!
.	.	.	.	.	.	4G/	.	.	.	.	.
!	!	!	!	!	!	!LO:LB:g=original	!	!	!LO:LB:g=original	!	!
=8-	=8-	=8-	=8-	=8-	=8-	=8-	=8-	=8-	=8-	=8-	=8-
*	*	*	*	*	*	*xywh-#5:569,3041,2133,526	*	*	*xywh-#5:656,1615,2040,554	*	*
2D/	.	po-	2c\	.	po-	2.A/	.	po-	2.a\	U-	-hań-
!LO:SIC:v:t=custos A	!	!	!	!	!	!	!	!	!	!	!
2C/	.	-hań-	1d	po-	-hań-	.	.	.	.	.	.
!	!	!	!	!	!	!	!	!	!LO:SIC:s=8gL	!	!
.	.	.	.	.	.	4B-/	.	-hań-	8g/	-ży-	.
!	!	!	!	!	!	!	!	!	!LO:SIC:s=8fJ	!	!
.	.	.	.	.	.	.	.	.	8f/	-wać	.
!LO:LB:g=original	!	!	!	!	!	!	!	!	!	!	!
!LO:MO:mod=*null:null	!	!	!	!	!	!	!	!	!	!	!
*clefF4	*	*	*	*	*	*	*	*	*	*	*
*xywh-#5:2694,3085,2110,456	*	*	*	*	*	*	*	*	*	*	*
1A	.	-bio-	.	.	.	1c	.	-bio-	1e	twey	-bio-
.	.	.	2c\	-hań-	-bio-	.	.	.	.	.	.
=9-	=9-	=9-	=9-	=9-	=9-	=9-	=9-	=9-	=9-	=9-	=9-
!	!	!	!LO:SIC:v:t=custos A	!	!	!	!	!	!	!	!
1D	.	-ny	1d	-bio-	-ny	1A	.	-ny	1f	o-	-ny
!	!	!	!LO:LB:g=original	!	!	!	!	!	!	!	!
*	*	*	*xywh-#5:2742,1657,2023,549	*	*	*	*	*	*	*	*
2D/	.	u-	2A/	-ny/	u-	2.d\	.	u-	2f/	-bro-	u-
2G\	.	-ży-	2B-\	U-	-ży-	.	.	.	2g/	-ny.	-ży-
.	.	.	.	.	.	4e\	.	-ży-	.	.	.
=10-	=10-	=10-	=10-	=10-	=10-	=10-	=10-	=10-	=10-	=10-	=10-
1F	.	-wa-	1c	-ży-	-wa-	1f	.	-wa-	1a	.	-wa-
2BB-/	.	-jąc	2d\	-wa-	-jąc	2f\	.	-jąc	2f/	.	-jąc
2BB-/	.	Twej	2d\	-iąc	Twej	2f\	.	Twej	2b-\	.	Twej
=11-	=11-	=11-	=11-	=11-	=11-	=11-	=11-	=11-	=11-	=11-	=11-
2F\	.	o-	2c\	twey	o-	2f\	.	o-	2a\	.	o-
2G\	.	.	2B-\	o-	.	2d\	.	.	1g	.	-bro-
1D	.	-bro-	1A	-bro-	-bro-	1d	.	-bro-	.	.	.
!	!	!	!	!	!	!	!	!	!LO:SIC:s=2f#i	!	!
.	.	.	.	.	.	.	.	.	2f/	.	.
=12-	=12-	=12-	=12-	=12-	=12-	=12-	=12-	=12-	=12-	=12-	=12-
!LO:SIC:s=0GG;	!	!	!LO:SIC:s=0G;	!	!	!LO:SIC:s=0d;	!	!	!LO:SIC:s=0g;	!	!
0GGl/	.	-ny.	0Gl/	-ny.	-ny.	0dl\	.	-ny.	0gl/	.	-ny.
==	==	==	==	==	==	==	==	==	==	==	==
*-	*-	*-	*-	*-	*-	*-	*-	*-	*-	*-	*-
!!!system-decoration: [(*)]
!!LO:MO:ori
!!!RDF**kern: l = terminal long
!!LO:MO:mod
!! !!!RDF**kern: i = editorial accidental
!!LO:MO:end
!!!filter-modern: shed -e "s/TX(.*):t=P:/tx$1:t=P:/LG" | shed -e "s/^custos:/Xcustos:/I" | sic -sq | modori -m | autostem -r | tie -s | humtr -p | shed -e "s/-//B"
!!!ENC: Mateusz Solarz
!!!END: 2022-04-28
!!!ENC: Wojciech Jakubiak-Danek
!!!END: 2022-05-10
!!!ENC-modern: Andrzej Kubiczek
!!!END-modern: 2022-07-25
!!!IIIF: https://polona.pl/iiif/item/MTE3MTYxNA/manifest.json
!!!ENC-iiif: Emilia Ziętek
!!!END-iiif: 2022-09-03
!!!YEC: Copyright 2022 Narodowy Instytut Fryderyka Chopina (https://polishscores.org)
!!!YEM: License CC-BY-4.0 (https://creativecommons.org/licenses/by/4.0)
